X: 1
T: Lochiel's Awa' Tae France
R: reel
M: 4/4
L: 1/8
K: Ador
g/f/ |: eA AB/d/ e/A/e/f/ g e/d/| GG BA/G/ Bdd g/f/ | 
eA AB/d/ e/A/e/f/ g/e/d/B/|1 AA BA/G/ gee g/f/ :|2 AA BA/G/ gee d/B/ |
Aa ag/f/ e/A/e/f/ g2 | a/g/f/e/ dB/d/ f/g/d dB/d/ |
ea ag/f/ e/A/e/f/ gf/g/ | ae ed/B/ ae ed/B/ | 
Aa ag/f/ e/A/e/f/ g2 | a/g/f/g/ dB/d/ f/g/d de/f/ | 
gf/e/ fe/d/ e/A/e/f/ g/e/d/B/ | AA BA/G/ ge eg/f/ | 


